X:1
T: Johnny's Wedding
C:
R:Reel
Q: 232
K:Gm
M:4/4
L:1/8
GA|:BG dG BG GB|AF cF AF FA|BG dG BG GB|AF ((3D=E^F) G2 GA|
BG dG BG GB|AF cF AF FA|GB Ac Bd ce|dg ^fa g2 GA:|
|:bg ag fd d=e|fd cB AF FA|bg ag fd dc|dg ^fa g2 ga|
bg ag fd d=e|fd cB AF FA|GB Ac Bd ce|1dg ^fa g2 ga:|2dg ^fa g2||
